X:1
T:Colcannon
M:6/8
L:1/8
K:F
 z3 C2 B,| G,2 C C2 D| E2 D C2 D| F2 C F2 G| A4 GA| B2 A G2 F| F2 A G2 F|\
 F2 E C2 A,| B,4 CC| G,2 C C2 D| E2 D C2 C| F2 C F2 G| A4 GA| B2 A G2 F|\
 F2 A G2 F| F2 E C2 C| C3 A2 B| c3 c2 A| B3 c2 B| A2 B c2 A| G4 AB|\
 c2 B A2 G| F2 A G2 F| F2 E C2 A,| B,4 C2| G,2 C C2 D| E2 D C2 C| C2 F F2 G|\
 A4 GA| B2 A G2 E| F2 A G2 F| F2 E C2 C| C4- C z| z6|
